X:1
T:Title
%%score { ( 1 2 5 ) | ( 3 4 ) }
L:1/8
Q:1/4=72
M:2/4
K:G
V:1 treble nm="Grand Piano"
V:2 treble 
V:5 treble 
V:3 bass 
V:4 bass 
V:1
 B4 | .c2[K:bass] .E2 | B4- | B4 | d2 d2 | d2 z2 | [DFA][Fce] [Fce][Fce] | [Fce]4 | %8
 [ce][Ac]/[GB]/ [FA][Fd] | [GB]4 | B4- | B4 | d2 d2 | d2 z2 | [^CE][GB] [GB][GB] | %15
 [CGB]4[K:bass][K:treble] | [GB][EG]/F/ [^CE][CA] | D4 | [GBd]2 [=FBd]2 | [DFd][Fc] [DFB][DFB] | %20
 [=FBd]2 [^Fcd]2 | ed [EGc][DGB] | [Fd]2 [Gd]2 | [Gc]2 z2 | [B,DG][Be] [FAd][A,CDF] | [B,DG]4 |] %26
V:2
 D2 D2 | [DF]/-[DFA]/F/E/[K:bass] [F,C]-[F,CD] | D-[G,D] z G, | DE/F/ G[GB] | B-[G,B-] B-[G,B-] | %5
 B>[GB] z G, | x4 | z A,/B,/ Cc/d/ | x4 | x4 | D-[G,D] z G, | DE/F/ G[GB] | B-[G,B-] B-[G,B-] | %13
 B>B z G, | x4 | z[K:bass] E,/F,/ G,[K:treble]G/A/ | x4 | x4 | z G, z ^G, | x4 | z ^G, z A, | %21
 [GB]2 z2 | z F, z G, | fe [EAc][A,CEA] | x4 | z G, z2 |] %26
V:3
 .G,,3/2 z/4 E/4 .G,,3/2 z/4 E/4 | D,,[D,A,] D,,D, | .G,,3/2 z/4 E/4 .G,,3/2 z/4 E/4 | %3
 G,,[D,G,] G,,[D,G,] | .G,,3/2 z/4[K:treble] e/4[K:bass] .G,,3/2 z/4[K:treble] e/4 | .G,,>D G,,D, | %6
 D,,[D,A,] [D,A,][D,A,] | D,,F,/G,/ A,[K:treble]A/B/ | D,,[D,F,] [D,A,][D,,D,] | %9
 [G,,D,]G, G,,[K:treble]F/E/ | .G,,3/2 z/4 E/4 .G,,3/2 z/4 E/4 | G,,[D,G,] G,,[D,G,] | %12
 .G,,3/2 z/4[K:treble] e/4[K:bass] .G,,3/2 z/4[K:treble] e/4 | .G,,>D G,,D, | %14
 A,,[E,A,^C] [E,A,C][E,A,C] | A,,^C,/D,/ E,[K:treble]E/F/ | z [E,A,] z2 | %17
 [D,F,]A,, D,/C,/B,,/A,,/ | .G,,3/2 z/4[K:treble] e/4[K:bass] .^G,,3/2 z/4[K:treble] ^c/4 | %19
 A,,[D,A,D] D,,D, | .^G,,3/2 z/4[K:treble] e/4[K:bass] .A,,3/2 z/4[K:treble] ^c/4 | %21
 B,,[D,G,] D,,D, | ._B,,3/2 z/4[K:treble] e/4[K:bass] .=B,,3/2 z/4[K:treble] ^d/4 | C,[G,C] C,E, | %24
 D,[G,B,G] D,,D, | G,,D, .G,,2 |] %26
V:4
 z D, z D, | x4 | z D, z D, | x4 | z D,[K:treble][K:bass] z D,[K:treble] | z D, z2 | x4 | %7
 x3[K:treble] x | x4 | x3[K:treble] x | z D, z D, | x4 | z D,[K:treble][K:bass] z D,[K:treble] | %13
 z D, z2 | x4 | x3[K:treble] x | .A,,>D A,,[A,,E,G,] | x4 | z D,[K:treble][K:bass] z D,[K:treble] | %19
 x4 | z D,[K:treble][K:bass] z D,[K:treble] | x4 | z D,[K:treble][K:bass] z D,[K:treble] | x4 | %24
 x4 | x4 |] %26
V:5
 x4 | x2[K:bass] x2 | z2 D2 | x4 | x4 | z G, [B,G]2 | x4 | x4 | x4 | x4 | z2 D2 | x4 | x4 | %13
 z G, [B,DG]2 | x4 | x[K:bass] x2[K:treble] x | x4 | x4 | x4 | x4 | x4 | x4 | x4 | x4 | x4 | x4 |] %26

